!!!OTL: 1284. Schlachtlied.
!!!ODT: 1836
!!!ARE: Europa, Mitteleuropa, Deutschland
!!!SCT: E1284
!!!TXL: @@DE
!!!YEM: Copyright 1995, estate of Helmut Schaffrath.
**kern	**text
*ICvox	*
*M3/4	*
*k[b-]	*
*F:	*
!LO:TX:a:t=Gehalten und fest.	!
!LO:TX:a:t=Mel. comp. von F. Silcher. VI, Rr. 1. 1836.	!
{8c	Kein
=1	=1
8f	ſchön-
8a	-rer
4.a	Tod
8a	iſt
=2	=2
8a	auf
8dd	der
4cc}	Welt,
{4ff	als
=3	=3
8dd	wer
8cc	vor'm
4b-	Feind
4a	er-
=4	=4
(8gL	-ſchla-
8b-J)	.
4a	-gen.
8r}	.
{8c	Auf
=5	=5
8f	grü-
8a	-ner
4.a	Heid
8a	im
=6	=6
8a	frei-
8dd	-en
4cc}	Feld,
{4ff	darf
=7	=7
8dd	nicht
8cc	hör'n
4b-	groß
4a	Weh-
=8	=8
(8gL	-kla-
8b-J)	.
4a	-gen;
8r}	.
{8cc	im
=9	=9
8cc	en-
8g	-gen
4.g	Bett
8a	nur
=10	=10
8g	Ein'r
8f	al-
4e}	-lein
{4g	muß
=11	=11
8g	an
8cc	den
4cc	To-
4ee	-des-
=12	=12
(8ddL	-rei-
8bnJ)	.
4cc	-hen,
8r}	.
{8c	hier
=13	=13
8f	fin-
8a	-det
4.a	er
8a	Ge-
=14	=14
8a	-ſell-
8dd	-ſchaft
4cc}	fein,
{4ff	fall'n
=15	=15
8dd	mit
8cc	wie
4b-	Kräu-
4a	-ter_im
=16	=16
(8gL	Mai-
8b-J)	.
4a	-en.
8r}	.
==	==
!!!AGN: Staende -, Soldaten -, Kriegs - Lied
!!!ONB: ESAC (Essen Associative Code) Database: ERK3
!!!AMT: simple triple
!!!AIN: vox
!!!EED: Helmut Schaffrath
!!!EEV: 1.0
!!!GTL: Staendelieder (Berufslieder). 1. Soldaten- und Kriegslieder. Landsknechts- und Reiterlieder.
!!!URL-scan: https://rosdok.uni-rostock.de/mcrviewer/recordIdentifier/rosdok_ppn745177999/iview2/phys_0174.iview2?x=-128.77276441889285&y=199.29991094896104&scale=0.5870222003877487&rotation=0&layout=singlePageLayout
!!!ENC: Anna Maria Matuszewska
!!!EEV: 2024/12/27
*-	*-
